src/pages/Main/ui/Program/ScheduleItem/images/candle.svg

<svg fill="none" height="27" viewBox="0 0 12 27" width="12" xmlns="http://www.w3.org/2000/svg"><path d="m11.591 26.2315h-.5079v-1.8319c0-.0017-.0004-.0034-.0004-.0051v-15.28932c0-.10087-.0436-.19963-.1199-.2711-.0762-.07128-.1814-.11221-.2892-.11221h-4.33108v-.85462c.32115-.05361.62201-.16774.88619-.33067.37157-.22922.67366-.55162.87717-.93244.22359-.35699.32033-.75087.31992-1.13572 0-.30338-.05821-.60254-.15781-.88633-.10022-.28397-.24204-.55296-.41501-.79736-.23405-.3299-.5013-.60792-.74744-.8748-.24696-.26669-.4724-.52165-.64107-.79737-.2027-.33143-.29328-.67248-.2941-1.03984 0-.193482.02623-.394073.07788-.601196h-.00021c.00082-.003651.00205-.007109.00287-.010568.04468-.205202-.09489-.406561-.31316-.45132888-.21826-.04476782-.43489.08319518-.48592.28705188-.00082.003651-.00144.007109-.00246.010568-.00861.040348-.02828.091649-.06005.149674-.04734.087038-.12194.187333-.207.288782-.08505.102024-.17973.204625-.26827.309917-.4101.48918-.81159 1.06309-1.1147 1.69157-.3023.62829-.50806 1.31345-.50847 2.02185 0 .30704.03914.61811.12645.92706.15842.55835.41788 1.09403.8288 1.51039.20536.20731.45047.38331.73494.50589.16867.07302.35107.12605.54372.15717v.85251h-4.48197c-.107593 0-.212936.04093-.289176.11221-.076034.07148-.119688.17023-.119688.27111v15.28982c0 .0016-.00041.0031-.00041.0046v1.8319h-.169285s-.00164.0011-.002665.0017h-.042628c-.221752 0-.41071226.1616-.4185002.3695-.00819785.218.1778932.3975.4086622.3975h.22749v-.0017h10.94448c.2218 0 .4108-.1616.4185-.3695.0082-.2181-.1778-.3975-.4086-.3975zm-6.26829-19.21619c-.26458-.11413-.48982-.3078-.67919-.57084-.18876-.26188-.33611-.59062-.43572-.94492-.06804-.24094-.09919-.48457-.09919-.7307-.00041-.5668.16765-1.14994.43592-1.70617.2363-.49072.54946-.95838.87963-1.37128.06456.2761.17277.54624.33099.80313.21642.35219.47998.64404.73186.91707.2527.27283.49392.52741.68411.79679.13383.18887.24409.39849.31972.61349.07583.21519.11682.43519.11682.64616-.00042.27341-.06661.52895-.21438.76009l-.01557.02671c-.1408.26591-.34964.48725-.59845.64058-.13506.08319-.2818.14583-.43674.18637v-.55835c0-.21173-.18322-.3835-.40907-.3835s-.40907.17177-.40907.3835v.55912c-.07009-.01844-.13793-.03996-.20187-.06744zm-2.91495 2.937v-.00076c.00431-.13546.02419-.29417.05452-.46305h7.80232v8.9722c-.1168.1091-.2474.1998-.38245.2648-.17359.0839-.35149.1262-.51462.126-.14285-.0004-.27443-.0304-.40108-.0968-.12625-.0671-.25106-.1728-.36727-.3434-.05308-.0784-.08792-.1562-.11149-.239-.02336-.0826-.03443-.1708-.03443-.2667-.00164-.2672.09346-.5945.21704-.9407.06107-.1733.12809-.3514.18794-.5332.05984-.1817.11354-.3669.14469-.5579.04693-.2884.0914-.6133.09181-.9096 0-.0903-.0043-.1785-.01537-.2653-.00861-.0652-.0209-.1297-.04099-.1953-.01516-.0489-.03443-.0987-.06189-.1496-.04099-.0753-.10227-.1568-.1988-.2219-.04775-.0323-.1037-.059-.16273-.0763-.05902-.0175-.1203-.0256-.1785-.0256-.08956 0-.17052.0177-.24328.0429-.10923.0384-.20351.0932-.29901.161-.0951.068-.19081.1502-.29348.2501-.16847.1637-.32464.299-.44453.3816-.0166.0116-.03197.0217-.04693.0312-.01128-.0681-.01886-.1616-.01865-.2802 0-.0401.00082-.083.00246-.1285.00368-.1003.01762-.2242.03791-.362.03013-.2069.07399-.4452.11108-.6965.03689-.2515.06722-.5163.06743-.7833-.00021-.2704-.03074-.5449-.12973-.8099-.0496-.1322-.11703-.2615-.20659-.382-.08935-.1204-.20105-.2313-.33345-.3258l-.00061-.0004c-.1326-.0945-.27996-.1601-.42813-.1996-.14859-.0398-.29779-.0546-.4431-.0546-.20945.0002-.41235.0303-.6093.0709-.29512.0613-.57938.147-.83843.2134-.25824.0675-.49147.1126-.65727.1117-.05492 0-.10226-.0044-.14182-.0121-.31685-.0621-.59701-.23-.79765-.4594-.20085-.2296-.31746-.5161-.31705-.80796 0-.01287.0002-.02555.00082-.03823zm-.95607-.46381h.18158c-.02316.15101-.03832.298-.04304.43941v-.00077c-.00082.02133-.00102.04227-.00102.06341.00041.48285.18998.93665.50232 1.29405.31254.3574.75236.6235 1.26349.724h.00123c.10371.0201.20659.028.30742.028.20249-.0004.39801-.0309.58963-.0713.28693-.0613.5677-.1464.82921-.2127.2607-.067.50171-.1128.68616-.1118.08547 0 .15802.0088.21868.0252.06067.0165.10985.0388.1576.0726.06456.0463.11498.0968.15802.1543.06394.0863.11149.1908.14305.318.03177.1268.04652.2745.04632.4352.00041.2822-.04529.601-.09653.9134-.02562.1564-.05247.3114-.0744.4623-.02193.1508-.03935.297-.04488.4396-.00205.0536-.00307.1055-.00307.1552 0 .1439.00819.2715.02664.3881.01393.0877.03341.1691.06251.2477.02193.0588.04939.1162.08587.1716.05411.0826.13239.1627.23384.2182.10084.0563.21889.0817.323.0809.1369-.0007.25085-.0353.35251-.0785.15227-.0663.28508-.1566.42116-.2629.13547-.1064.27155-.23.41112-.3652.03115-.0306.05964-.0567.08669-.0805 0 .0094.00062.018.00062.0278.00061.2223-.03771.523-.08239.7932v.0005c-.02152.1328-.06353.2842-.11743.4469-.08055.2446-.18712.5138-.2773.7978-.08935.2844-.16395.5852-.16457.903 0 .1514.01783.3071.06128.4621.04345.1549.11313.309.21192.4548.17809.2638.40292.4671.65644.6004.25311.134.53101.1958.80236.1954.31193 0 .61463-.0787.88927-.2113.0027-.0012.0049-.0029.0076-.004v4.6133h-8.81291z" fill="#efeded"/></svg>

<svg width="12" height="27" viewBox="0 0 12 27" fill="none" xmlns="http://www.w3.org/2000/svg">
    <path d="M11.591 26.2315H11.0831V24.3996C11.0831 24.3979 11.0827 24.3962 11.0827 24.3945V9.10518C11.0827 9.00431 11.0391 8.90555 10.9628 8.83408C10.8866 8.7628 10.7814 8.72187 10.6736 8.72187H6.34252V7.86725C6.66367 7.81364 6.96453 7.69951 7.22871 7.53658C7.60028 7.30736 7.90237 6.98496 8.10588 6.60414C8.32947 6.24715 8.42621 5.85327 8.4258 5.46842C8.4258 5.16504 8.36759 4.86588 8.26799 4.58209C8.16777 4.29812 8.02595 4.02913 7.85298 3.78473C7.61893 3.45483 7.35168 3.17681 7.10554 2.90993C6.85858 2.64324 6.63314 2.38828 6.46447 2.11256C6.26177 1.78113 6.17119 1.44008 6.17037 1.07272C6.17037 0.879238 6.1966 0.678647 6.24825 0.471524H6.24804C6.24886 0.467873 6.25009 0.464415 6.25091 0.460956C6.29559 0.255754 6.15602 0.054395 5.93775 0.00962712C5.71949 -0.0351407 5.50286 0.0928223 5.45183 0.296679C5.45101 0.30033 5.45039 0.303788 5.44937 0.307247C5.44076 0.347595 5.42109 0.398896 5.38932 0.456921C5.34198 0.543959 5.26738 0.644254 5.18232 0.745703C5.09727 0.847727 5.00259 0.950328 4.91405 1.05562C4.50395 1.5448 4.10246 2.11871 3.79935 2.74719C3.49705 3.37548 3.29129 4.06064 3.29088 4.76904C3.29088 5.07608 3.33002 5.38715 3.41733 5.6961C3.57575 6.25445 3.83521 6.79013 4.24613 7.20649C4.45149 7.4138 4.6966 7.5898 4.98107 7.71238C5.14974 7.7854 5.33214 7.83843 5.52479 7.86955V8.72206H1.04282C0.935227 8.72206 0.829884 8.76299 0.753644 8.83427C0.67761 8.90575 0.633956 9.0045 0.633956 9.10538V24.3952C0.633956 24.3968 0.633546 24.3983 0.633546 24.3998V26.2317H0.464261C0.464261 26.2317 0.462621 26.2328 0.461596 26.2334H0.418968C0.197216 26.2334 0.00825574 26.395 0.000467795 26.6029C-0.00773005 26.8209 0.178361 27.0004 0.40913 27.0004H0.63662V26.9987H11.5811C11.8029 26.9987 11.9919 26.8371 11.9996 26.6292C12.0078 26.4111 11.8218 26.2317 11.591 26.2317V26.2315ZM5.32271 7.01531C5.05813 6.90118 4.83289 6.70751 4.64352 6.44447C4.45476 6.18259 4.30741 5.85385 4.2078 5.49955C4.13976 5.25861 4.10861 5.01498 4.10861 4.76885C4.1082 4.20205 4.27626 3.61891 4.54453 3.06268C4.78083 2.57196 5.09399 2.1043 5.42416 1.6914C5.48872 1.9675 5.59693 2.23764 5.75515 2.49453C5.97157 2.84672 6.23513 3.13857 6.48701 3.4116C6.73971 3.68443 6.98093 3.93901 7.17112 4.20839C7.30495 4.39726 7.41521 4.60688 7.49084 4.82188C7.56667 5.03707 7.60766 5.25707 7.60766 5.46804C7.60724 5.74145 7.54105 5.99699 7.39328 6.22813L7.37771 6.25484C7.23691 6.52075 7.02807 6.74209 6.77926 6.89542C6.6442 6.97861 6.49746 7.04125 6.34252 7.08179V6.52344C6.34252 6.31171 6.1593 6.13994 5.93345 6.13994C5.7076 6.13994 5.52438 6.31171 5.52438 6.52344V7.08256C5.45429 7.06412 5.38645 7.0426 5.32251 7.01512L5.32271 7.01531ZM2.40776 9.95231V9.95155C2.41207 9.81609 2.43195 9.65738 2.46228 9.4885H10.2646V18.4607C10.1478 18.5698 10.0172 18.6605 9.88215 18.7255C9.70856 18.8094 9.53066 18.8517 9.36753 18.8515C9.22468 18.8511 9.0931 18.8211 8.96645 18.7547C8.8402 18.6876 8.71539 18.5819 8.59918 18.4113C8.5461 18.3329 8.51126 18.2551 8.48769 18.1723C8.46433 18.0897 8.45326 18.0015 8.45326 17.9056C8.45162 17.6384 8.54672 17.3111 8.6703 16.9649C8.73137 16.7916 8.79839 16.6135 8.85824 16.4317C8.91808 16.25 8.97178 16.0648 9.00293 15.8738C9.04986 15.5854 9.09433 15.2605 9.09474 14.9642C9.09474 14.8739 9.09044 14.7857 9.07937 14.6989C9.07076 14.6337 9.05847 14.5692 9.03838 14.5036C9.02322 14.4547 9.00395 14.4049 8.97649 14.354C8.9355 14.2787 8.87422 14.1972 8.77769 14.1321C8.72994 14.0998 8.67399 14.0731 8.61496 14.0558C8.55594 14.0383 8.49466 14.0302 8.43646 14.0302C8.3469 14.0302 8.26594 14.0479 8.19318 14.0731C8.08395 14.1115 7.98967 14.1663 7.89417 14.2341C7.79907 14.3021 7.70336 14.3843 7.60069 14.4842C7.43222 14.6479 7.27605 14.7832 7.15616 14.8658C7.13956 14.8774 7.12419 14.8875 7.10923 14.897C7.09795 14.8289 7.09037 14.7354 7.09058 14.6168C7.09058 14.5767 7.0914 14.5338 7.09304 14.4883C7.09672 14.388 7.11066 14.2641 7.13095 14.1263C7.16108 13.9194 7.20494 13.6811 7.24203 13.4298C7.27892 13.1783 7.30925 12.9135 7.30946 12.6465C7.30925 12.3761 7.27872 12.1016 7.17973 11.8366C7.13013 11.7044 7.0627 11.5751 6.97314 11.4546C6.88379 11.3342 6.77209 11.2233 6.63969 11.1288L6.63908 11.1284C6.50648 11.0339 6.35912 10.9683 6.21095 10.9288C6.06236 10.889 5.91316 10.8742 5.76785 10.8742C5.5584 10.8744 5.3555 10.9045 5.15855 10.9451C4.86343 11.0064 4.57917 11.0921 4.32012 11.1585C4.06188 11.226 3.82865 11.2711 3.66285 11.2702C3.60793 11.2702 3.56059 11.2658 3.52103 11.2581C3.20418 11.196 2.92402 11.0281 2.72338 10.7987C2.52253 10.5691 2.40592 10.2826 2.40633 9.99074C2.40633 9.97787 2.40653 9.96519 2.40715 9.95251L2.40776 9.95231ZM1.45169 9.4885H1.63327C1.61011 9.63951 1.59495 9.7865 1.59023 9.92791V9.92714C1.58941 9.94847 1.58921 9.96941 1.58921 9.99055C1.58962 10.4734 1.77919 10.9272 2.09153 11.2846C2.40407 11.642 2.84389 11.9081 3.35502 12.0086H3.35625C3.45996 12.0287 3.56284 12.0366 3.66367 12.0366C3.86616 12.0362 4.06168 12.0057 4.2533 11.9653C4.54023 11.904 4.821 11.8189 5.08251 11.7526C5.34321 11.6856 5.58422 11.6398 5.76867 11.6408C5.85414 11.6408 5.92669 11.6496 5.98735 11.666C6.04802 11.6825 6.0972 11.7048 6.14495 11.7386C6.20951 11.7849 6.25993 11.8354 6.30297 11.8929C6.36691 11.9792 6.41446 12.0837 6.44602 12.2109C6.47779 12.3377 6.49254 12.4854 6.49234 12.6461C6.49275 12.9283 6.44705 13.2471 6.39581 13.5595C6.37019 13.7159 6.34334 13.8709 6.32141 14.0218C6.29948 14.1726 6.28206 14.3188 6.27653 14.4614C6.27448 14.515 6.27346 14.5669 6.27346 14.6166C6.27346 14.7605 6.28165 14.8881 6.3001 15.0047C6.31403 15.0924 6.33351 15.1738 6.36261 15.2524C6.38454 15.3112 6.412 15.3686 6.44848 15.424C6.50259 15.5066 6.58087 15.5867 6.68232 15.6422C6.78316 15.6985 6.90121 15.7239 7.00532 15.7231C7.14222 15.7224 7.25617 15.6878 7.35783 15.6446C7.5101 15.5783 7.64291 15.488 7.77899 15.3817C7.91446 15.2753 8.05054 15.1517 8.19011 15.0165C8.22126 14.9859 8.24975 14.9598 8.2768 14.936C8.2768 14.9454 8.27742 14.954 8.27742 14.9638C8.27803 15.1861 8.23971 15.4868 8.19503 15.757V15.7575C8.17351 15.8903 8.1315 16.0417 8.0776 16.2044C7.99705 16.449 7.89048 16.7182 7.8003 17.0022C7.71095 17.2866 7.63635 17.5874 7.63573 17.9052C7.63573 18.0566 7.65356 18.2123 7.69701 18.3673C7.74046 18.5222 7.81014 18.6763 7.90893 18.8221C8.08702 19.0859 8.31185 19.2892 8.56537 19.4225C8.81848 19.5565 9.09638 19.6183 9.36773 19.6179C9.67966 19.6179 9.98236 19.5392 10.257 19.4066C10.2597 19.4054 10.2619 19.4037 10.2646 19.4026V24.0159H1.45169V9.4885Z" fill="#EFEDED"/>
</svg>
